images/icons/search-view.svg

<svg width="24" height="24" viewBox="0 0 24 24" xmlns="http://www.w3.org/2000/svg" fill="currentColor"><path d="M19.75 7.52575C19.8675 7.86261 19.9591 8.21164 20.0223 8.57044C20.6001 8.81989 21.1375 9.14493 21.6222 9.5331C21.5731 7.62907 20.8789 5.88554 19.75 4.51298V7.52575ZM14.75 3.14014V1.61406C14.3029 1.53905 13.8435 1.5 13.375 1.5C8.81869 1.5 5.12504 5.19365 5.12504 9.75C5.12504 11.8483 5.90838 13.7636 7.19857 15.2195L1.5 20.7579L2.62509 21.75L8.29142 16.2481C9.0183 16.8176 9.84314 17.2677 10.7365 17.569C10.5109 16.9975 10.3583 16.3892 10.2903 15.7555C8.11373 14.6352 6.62504 12.3665 6.62504 9.75C6.62504 6.02208 9.64712 3 13.375 3C13.8462 3 14.3061 3.04827 14.75 3.14014Z"/><path d="M17.25 18.75C15.1789 18.75 13.5 17.0711 13.5 15C13.5 12.9289 15.1789 11.25 17.25 11.25C19.3211 11.25 21 12.9289 21 15C21 17.0711 19.3211 18.75 17.25 18.75ZM12 15C12 17.8995 14.3505 20.25 17.25 20.25C20.1495 20.25 22.5 17.8995 22.5 15C22.5 12.1005 20.1495 9.75 17.25 9.75C14.3505 9.75 12 12.1005 12 15Z"/><path d="M16.5 24V19.5H18V24H16.5Z"/><path d="M16.5 11V0H18V11H16.5Z"/></svg>

<svg xmlns="http://www.w3.org/2000/svg" width="24" height="24" fill="currentColor"><path d="M19.75 7.53c.12.33.2.68.27 1.04a7 7 0 0 1 1.6.96 8.21 8.21 0 0 0-1.87-5.02v3.02Zm-5-4.39V1.61a8.25 8.25 0 0 0-7.55 13.6l-5.7 5.55 1.13.99 5.66-5.5a8.23 8.23 0 0 0 2.45 1.32 6.96 6.96 0 0 1-.45-1.81 6.75 6.75 0 0 1 4.46-12.62Z"/><path d="M18 9.8a5.25 5.25 0 0 1 0 10.4V24h-1.5v-3.8a5.25 5.25 0 0 1 0-10.4V0H18v9.8Zm-.75 8.95a3.75 3.75 0 1 0 0-7.5 3.75 3.75 0 0 0 0 7.5Z"/></svg>
